resources/svg/tablet.svg

<svg xmlns="http://www.w3.org/2000/svg" viewBox="0 0 15 15" fill="currentColor"><path fill-rule="evenodd" clip-rule="evenodd" d="M1 1.5C1 0.671573 1.67157 0 2.5 0H12.5C13.3284 0 14 0.671573 14 1.5V13.5C14 14.3284 13.3284 15 12.5 15H2.5C1.67157 15 1 14.3284 1 13.5V1.5ZM6 12H9V11H6V12Z" fill="black"/></svg>

<svg xmlns="http://www.w3.org/2000/svg" viewBox="0 0 15 15" fill="currentColor"><path fill-rule="evenodd" clip-rule="evenodd" d="M1 1.5A1.5 1.5 0 012.5 0h10A1.5 1.5 0 0114 1.5v12a1.5 1.5 0 01-1.5 1.5h-10A1.5 1.5 0 011 13.5v-12zM6 12h3v-1H6v1z" fill="currentColor"/></svg>
